!!!!SEGMENT: pl-wumfc--r252--001_paderewski-ignacy-jan--trois-morceaux-op-3-humoresque.krn
!!!cenid: 18xx:3141
!!!COM: Paderewski, Ignacy Jan
!!!COM-rismID: pe30029943
!!!CDT: 1860/11/18-1941/06/29
!!!CNT: Polish
!!!GTL: Trois morceaux op. 3
!!!OTL: Humoresque
!!!PDT:
!!!AGN:
!!!SMS-siglum: PL-Wumfc
!!!SMS-shelfmark: R252
!!!SMS-shelfwork: 001 G
!!!SMS-variant:
!!!SMS-altvar:
!!!NIFC-rismSourceID: 1001155974
!!!NIFC-islandoraID: pl-wumfc:213
!!!URL-pdf-islandora: https://repozytorium.nifc.pl/islandora/object/pl-wumfc%3A213/datastream/PDF/view
!!!URL-scan: https://polish.musicsources.pl/pl/lokalizacje/galeria/rekopisy/4672 @EN{Scan on Polish Music Sources Website} @PL{Skany w portalu Dziedzictwo Muzyki Polskiej w otwartym dostępie}
!!!ONB-nifc:
!!!AIN: 1 piano
!!!key: e
!!!OMD: Allegro
**kern	**fing	**kern	**dynam
*part1	*	*part1	*part1
*staff2	*	*staff1	*
*I"Piano	*	*I"Piano	*
*Ipiano	*	*Ipiano	*
*ICklav	*	*ICklav	*
*IGsolo	*	*IGsolo	*
*clefF4	*	*clefG2	*
*k[f#]	*	*k[f#]	*
*e:	*	*e:	*
*M4/4	*	*M4/4	*
*met(c)	*	*met(c)	*
!	!	!LO:TX:a:t=Nº 1. "Humoresque"	!
4BB;/	.	4r	.
=1	=1	=1	=1
(<2EE/	.	4r	.
!	!	!	!LO:DY:t=piano e con gracia
.	.	(8eL 8G/	p
.	.	8f#J 8B/	.
2BB/	.	4g 4e/)	<
.	.	4a 4f#'/	.
=2	=2	=2	=2
*	*	*^	*
2B\	.	4b 4g'/	2ryy	.
.	.	[4gg 4b 4g^>/	.	[
2BB/)	.	8gg/L]	[4b 4a\	.
.	.	8ff#/	.	>
.	.	8ee 8b_ 8g/	4ryy	.
.	.	8dd#XJ 8b] 8f#/	.	]]
*	*	*v	*v	*
=3	=3	=3	=3
(<2EE/	.	4ee 4b 4g'/	.
.	.	4b 4g 4e'/	.
.	.	8qdd/	.
2BB/	.	4cc 4a 4e/	.
.	.	8bL 8e 8c/	.
.	.	8a/J	.
=4	=4	=4	=4
2B\	.	4b 4g 4e/	.
.	.	4g 4e 4B/	.
2BB\)	.	4f# 4d#X 4B/	.
.	.	(>4B< 4A< 4D#X</	.
!!LO:LB:g=original
=5	=5	=5	=5
2EE\	.	4B< 4G< 4E</)	.
.	.	(8eL 8E/	.
.	.	8f#J 8B/	<
2BB\	.	4g 4e/)	.
.	.	4a 4f#'/	[
=6	=6	=6	=6
*	*	*^	*
*	*	*	*^	*
!	!	!	!	!	!LO:HP:t=cresc&colon;
2E\	.	4b 4g/	2ryy	2.ryy	<
.	.	4gg 4b 4g/	.	.	.
4E\	.	(8ggL 8cc/	2g\	.	.
.	.	8ff#/	.	.	.
4E-X\	.	8gg/	.	4cc#X\	.
.	.	8aa/J)	.	.	.
*	*	*v	*v	*v	*
=7	=7	=7	=7
8D\L	.	4bb 4dd 4g^>/	.
(8c#X 8A#X\	.	.	.
8dJ 8B\)	.	(8ggL 8b/	.
8r	.	8ddJ 8g/)	.
8D\L	.	4ee#X 4e#X/	.
8B 8G#X\	.	.	.
8c#J 8A#\	.	(8ddL 8f#/	.
8ryy	.	8aJ 8d/)	.
=8	=8	=8	=8
*^	*	*^	*
8r	2D\	.	2cc/	4f#\	.
8A/L	.	.	.	.	.
8G/	.	.	.	8e\L	.
8F#/J	.	.	.	8d\J	.
2G/	2GG\	.	4b/	2d 2B\	.
.	.	.	4g/	.	.
*v	*v	*	*	*	*
*	*	*v	*v	*
=9	=9	=9	=9
*ped	*	*	*
!	!	!LO:TUP:a:problem=klamra łukowa	!
4C/	.	[[>12eeL [>12cc/	ff
.	.	[[>12g/	.
.	.	[<12e/J	.
!LO:TUP:a:problem=klamra łukowa	!	!	!
12c\L	.	4ee]] 4cc] 4g]] 4e/]	.
12G\	.	.	.
*Xped	*	*	*
12C\J	.	.	.
*ped	*	*	*
2B 2D 2GG\	.	2dd 2b 2g 2d/	.
*Xped	*	*	*
!!LO:LB:g=original
=10	=10	=10	=10
*	*	*Xtuplet	*
4C/	.	[[>12eeL [>12cc/	.
.	.	[[>12g/	.
.	.	[<12e/J	.
*Xtuplet	*	*	*
!	!	!	!LO:HP:t=cresc &colon;
12c\L	.	4ee]] 4cc] 4g]] 4e/]	<
12G\	.	.	.
12C\J	.	.	.
2B 2D 2GG\	.	8ddL 8b/	.
.	.	8d/	.
.	.	8g/	.
.	.	8b/J	.
=11	=11	=11	=11
*ped	*	*tuplet	*
!	!	!LO:TUP:a:problem=klamra łukowa	!
4B-X 4Fn 4BB-X\	.	12ddL 12b-X/	.
.	.	12fn/	.
.	.	12d/J	.
!	!	!LO:TUP:a:problem=klamra łukowa	!
4BB-X 4FFn 4BBB-X\	.	12d<L 12B<^/	.
.	.	12Fn</	.
*Xped	*	*	*
.	.	12D</J	.
2FF 2FFFny\	.	2c< 2A< 2F< 2C<^/	.
=12	=12	=12	=12
*	*	*Xtuplet	*
4B-X 4Fn 4BB-X\	.	12ddL 12b-X/	.
.	.	12fn/	.
.	.	12d/J	.
4BB-X 4FFn 4BBB-X\	.	12d<L 12B</	.
.	.	12Fn</	.
.	.	12D</J	.
2FF 2FFFny\	.	8c<L 8A</	>
.	.	8C</	.
.	.	8F</	.
.	.	8A</J	]
=13	=13	=13	=13
*	*	*^	*
8FF#\L	.	[4c/	4ryy	<
8C\	.	.	.	.
8A\	.	8fn/L	2c\]	.
8G\J	.	8g/J	.	.
2F#\	.	4a 4f/	.	.
.	.	4a 4f 4c/	4ryy	[
*	*	*v	*v	*
=14	=14	=14	=14
*	*	*	*^
2BB/	.	4b 4f#X 4d#X'/	>	.
!	!	!	!	!LO:DY:a
.	.	4f# 4d# 4B'/	.	p
2E\	.	4g 4e 4B'/	.	.
.	.	4e 4B 4G'/	]	.
*	*	*	*v	*v
!!LO:LB:g=original
=15	=15	=15	=15
*^	*	*	*
4ryy	8CC\L	.	4r	<
.	8GG\	.	.	.
2G/	8E\	.	(8c/L	.
.	8D\J	.	8d/J	.
.	2C\	.	4e 4c/)	[[
4ryy	.	.	4e 4c 4G/	.
*v	*v	*	*	*
=16	=16	=16	=16
!	!	!	!LO:DY:b=2:rj
2FF#\	.	4f#< 4c#X< 4A#X</	p
.	.	4c#< 4A#< 4F#</	>
2BB\	.	4d#X< 4B< 4F#</	.
.	.	[4B< [<4An< 4D#X</	.
=17	=17	=17	=17
*^	*	*	*
2ryy	4EE\	.	4B<] 4A</]	.
.	4BB\	.	(8e<L 8G</	]
.	.	.	8f#<J 8B</	.
4d/	4B\	.	4g 4e'/)	<
4c/	4A\	.	4a 4f#'/	.
=18	=18	=18	=18	=18
*	*	*	*^	*
2B/	4G\	.	4b 4g/	2ryy	[
.	4E\	.	[4gg 4b 4g/	.	.
!	!	!	!	!	!LO:HP:t=cresc&colon;
4c#X\	4A#X\	.	8gg/L]	4g\	<
.	.	.	8ff#/	.	.
4cn\	4An\	.	8ee/	4f#\	.
.	.	.	8dd#X/J	.	.
=19	=19	=19	=19	=19	=19
(4B/	2G\	.	4ee/	2e\	.
4e^/)	.	.	4b/	.	.
.	.	.	8qdd/	.	.
2c/	4A\	.	4cc/	2e\	.
.	8G\L	.	8b/L	.	.
.	8F#\J	.	8a/J	.	.
*v	*v	*	*	*	*
*	*	*v	*v	*
!!LO:LB:g=original
=20	=20	=20	=20
*^	*	*	*
!	!	!	!	!LO:HP:t=cresc&colon;
[4B/	4G\	.	4b [4e/	<
4B/]	4E\	.	4g 4e]/	.
2ryy	8BB\L	.	4f# 4d 4B/	.
.	8AA\	.	.	.
.	8GG\	.	[4B< 4A< 4D</	.
.	8FF#\J	.	.	.
*v	*v	*	*	*
=21	=21	=21	=21
4EE\	.	4B<] 4G< 4E</	.
4BB\	.	8eL 8G/	.
.	.	8f#J 8B/	.
2B^\	.	4g 4e/	.
.	.	4a 4f#/	.
=22	=22	=22	=22
*^	*	*	*
*ped	*	*	*	*
4r	[2GG\	.	4b 4g/	.
4B 4G 4E/	.	.	4bb^>/	f
2e 2B 2G/	2GG\]	.	8gg/L	.
!	!	!	!LO:TX:b:i:t=ritard	!
.	.	.	8dd#X/	.
.	.	.	8ee/	.
*Xped	*	*	*	*
.	.	.	8b/J	.
*v	*v	*	*	*
=23	=23	=23	=23
(8FFn\L	.	(8a/L	.
8C\	.	8g/	.
8A\	.	8cc 8fn/	.
8G\J	.	8e/J	.
2F#X 2BB\)	.	4b 4d#X/)	.
.	.	4d#X 4B 4A</	.
=24	=24	=24	=24
*ped	*	*	*
4r	.	[2e [>2B [2G/	.
2.EEE^\	.	.	.
!	!	!LO:TX:a:t=m.g.	!
.	.	2ee 2e] 2B] 2G;/]	.
*Xped	*	*	*
!!LO:PB:g=original
=25||	=25||	=25||	=25||
*k[f#c#g#d#]	*	*k[f#c#g#d#]	*
*^	*	*	*
*	*	*	*tuplet	*
!	!	!	!LO:TX:a:i:t=un poco piu Lento	!
4G# 4BB/	[1EE	.	12B/L	.
.	.	.	12c#/	.
.	.	.	12B/J	.
!	!	!	!LO:N:vis=2	!
(4g#> 4e>\	.	.	[>2.b/	<
4f#> 4d#>\	.	.	.	.
4e> 4c#>\	.	.	.	.
=26	=26	=26	=26	=26
4d#> 4B>\	1EE]	.	12b/L]	.
.	.	.	12cc#/	.
.	.	.	12b/J	[
4c# 4A/	.	.	2.bb/	.
4B 4G#/	.	.	.	.
4A 4F#/)	.	.	.	.
*v	*v	*	*	*
=27	=27	=27	=27
!	!	!LO:TUP:a:problem=klamra łukowa	!
8BL 8G# 8E\	.	12bb/L	.
.	.	12ccc#/	.
8g#>J 8B>\	5 2	.	.
.	.	12bb/J	.
8b>L 8e>\	4 1	4eee/	<
8ee>J 8g#>\	.	.	.
4dd#> 4f#>\	.	4ddd#/	[
!	!	!	!LO:DY:a:t=mfz
4b> 4d#>\	.	4bb/	mf
=28	=28	=28	=28
8a>L 8c#>\	5 2	4aa/	.
8b> 8d#>\	4 1	.	.
!	!	!	!LO:HP:t=cresc&colon;
8cc#> 8e>\	5 2	4ccc#/	<
8dd#>J 8f#>\	4 1	.	.
4ee> 4g#>\	3 1	4bb/	.
4b> 4e>\	5 2	4gg#/	.
!!LO:LB:g=original
=29	=29	=29	=29
*	*	*^	*
!	!	!	!LO:TUP:a:problem=klamra łukowa	!
4d#\	.	4.bb/	12e\L	.
.	.	.	12f#\	.
.	.	.	12e\J	.
4dn\	.	.	4ee\	.
.	.	8gg#/	.	.
!	!	!	!	!LO:DY:t=mfz
8c#\L	.	8aaL 8ee/	2ryy	mf
8cn\	.	8ff#/	.	>
8B\	.	8gg#/	.	.
8B#X\J	.	8dd#J 8a/	.	.
=30	=30	=30	=30	=30
*tuplet	*	*	*	*
!LO:TUP:a:problem=klamra łukowa	!	!	!	!
12c#\L	.	4ee 4g#/	2ryy	.
12d#\	.	.	.	.
12c#\J	.	.	.	.
4A#X\	.	8cc#L 8g# 8e/	.	]
.	.	8cc#/J	.	.
4D#\	.	(8dd#/L	4f##X 4d#\	.
!	!	!LO:TX:b:i:t=rit&colon;	!	!
.	.	8a#X/	.	.
8G#\L	.	8bJ 8g# 8d#/	4ryy	.
8BB\J	.	8B< 8A< 8D#</)	.	.
*	*	*v	*v	*
=31	=31	=31	=31
*^	*	*	*
4G#/	[>1BB [1EE	.	12B/L	.
.	.	.	12c#/	.
.	.	.	12B/J	.
!	!	!	!	!LO:DY:a
(<4g#> 4e>\	.	.	2b/	sf
4f#> 4d#>\	.	.	.	.
4e> 4c#>\	.	.	4ryy	.
=32	=32	=32	=32	=32
*	*	*	*Xtuplet	*
4d# 4B/	1BB] 1EE]	.	12b/L	.
.	.	.	12cc#/	.
.	.	.	12b/J	.
4c# 4A/	.	.	2.bb/	.
4B 4G#/	.	.	.	.
4A 4F#/)	.	.	.	.
*v	*v	*	*	*
=33	=33	=33	=33
*	*	*tuplet	*
!	!	!LO:TUP:b	!
8BL 8G# 8E\	.	12bb/L	.
.	.	12ccc#/	.
8g#J 8e 8B\	.	.	.
.	.	12bb/J	.
8b>L 8e>\	.	4eee/	<
8ee>J 8g#>\	.	.	.
4dd#> 4f#>\	.	4ddd#/	[ >
4b> 4d#>\	.	4bb/	]]
!!LO:LB:g=original
=34	=34	=34	=34
8a>L 8c#>\	.	4aa/	<
8b> 8d#>\	.	.	.
8cc#> 8e>\	.	4ccc#/	.
8dd#>J 8f#>\	.	.	[
8ee>L 8g#>\	.	4bb/	.
8cc#>\	.	.	.
8b> 8e>\	.	4gg#/	.
8g#>\J	.	.	.
=35	=35	=35	=35
*^	*	*	*
*	*	*	*Xtuplet	*
[4a> [4e> 4c#>\	2ryy	.	12ff#/L	.
.	.	.	12gg#/	.
.	.	.	12ff#/J	.
!	!	!	!LO:TX:b:i:t=con pentimento	!
4a>] 4e>] 4cn>\	.	.	8aa/L	.
.	.	.	8aa/J	.
4b>\	2e> 2B>\	.	8gg#/L	.
.	.	.	8ee/	.
4g#>\	.	.	8dd#/	.
.	.	.	8cc#/J	.
*v	*v	*	*	*
=36	=36	=36	=36
*	*	*tuplet	*
[4a> 4e> [4B>\	.	(12b/L	.
.	.	12cc#/	.
.	.	12b/J	.
!	!	!LO:TX:b:i:t=rall	!
(>4a>] 4d#X> 4B>\_	.	8ff#/L)	.
.	.	8ff#/J	.
4g#> 4e> 4B>\])	.	4ee/	.
(4E\	.	4r	.
=37	=37	=37	=37
*^	*	*	*
*	*	*	*Xtuplet	*
4r	[1BB)	.	12cc#/L	.
.	.	.	12ddn/	<
.	.	.	12cc#/J	.
4g#> 4e>\	.	.	[2.ccc#/	.
4a> 4f#>\	.	.	.	.
4b> 4g#>\	.	.	.	[[
!!LO:LB:g=original
=38	=38	=38	=38	=38
4cc#> 4a>\	1BB]	.	4ccc#/]	.
*	*	*	*8va	*
4a> 4f#> 4c#> 4A>\	.	.	4cccc# 4fff# 4ccc#/	.
4a> 4f#> 4c#> 4A>\	.	.	8cccc#L 8fff# 8ccc#/	f
*	*	*	*X8va	*
.	.	.	8aa/	>
4ryy	.	.	8ff#/	.
.	.	.	8ddn/J	]]
=39	=39	=39	=39	=39
8r	[1B	.	4cc#/	.
8c#'/L	.	.	.	.
8dn'/	.	.	2aa^/	.
8d#X'/J	.	.	.	.
8e>\L	.	.	.	.
8e#X>\	.	.	.	<
8a>\	.	.	4ee#X/	.
8g#>\J	.	.	.	.
=40	=40	=40	=40	=40
4f#>\	1B]	.	8ff#/L	[
!	!	!	!	!LO:HP:t=cresc&colon;
.	.	.	8gg#/	<
4fn>\	.	.	8aa/	.
.	.	.	8bb/J	.
4e>\	.	.	8bb#X/L	.
.	.	.	8ccc#/	.
8d#>\L	.	.	8fff#/	.
8c#>\J	.	.	8aaa/J	.
*v	*v	*	*	*
=41	=41	=41	=41
4B\	.	12b/L	<
.	.	12cc#/	.
.	.	12b/J	.
4c# 4AA#X\	.	4ff# 4f#/	.
2B 2AAn\	.	4gg# 4dd# 4g#/	.
.	.	4aa 4a/	[[
=42	=42	=42	=42
*^	*	*	*
*ped	*	*	*	*
4B/	1GG#	.	8bbL 8gg# 8b/	.
.	.	.	8gg#/	.
[4e>\	.	.	8ee/	.
.	.	.	8cc#/J	.
8e>\L]	.	.	4b/	f >
8g#>\	.	.	.	.
8e>\	.	.	4ryy	.
8c#>\J	.	.	.	]]
!!LO:LB:g=original
=43	=43	=43	=43	=43
*	*	*	*tuplet	*
4B>\	4GG#\	.	12b/L	.
.	.	.	12cc#/	.
.	.	.	12b/J	.
4B/	4GGn\	.	4ee 4e/	.
4A#X/	2FF#\	.	4dd# 4a#X 4d#/	.
[4F#/	.	.	4ee 4a# 4e/	.
=44	=44	=44	=44	=44
4F#/]	1BB	.	8ff#L 8an 8d#/	f
.	.	.	8dd#/	.
4d#>\	.	.	8cc#/	<
.	.	.	8b/J	.
!	!	!	!LO:TX:a:i:t=ritard	!
8d#>\L	.	.	4a/	.
8f#>\	.	.	.	.
8d#>\	.	.	4r	[
8c#>\J	.	.	.	.
=45	=45	=45	=45	=45
(12BB/L	1EE	.	4B/	.
12C#/	.	.	.	.
12BB/J	.	.	.	.
2.B/)	.	.	(>4b 4g#/	f
.	.	.	4a 4f#/	.
.	.	.	4g# 4e/	.
=46	=46	=46	=46	=46
(12BB/L	1EE	.	4f# 4d#/	.
12C#/	.	.	.	.
12BB/J	.	.	.	.
2.b>/)	.	.	4e 4c#/	.
.	.	.	4d# 4B/	.
.	.	.	4c# 4A/	.
=47	=47	=47	=47	=47
!LO:TUP:a:problem=klamra łukowa	!	!	!	!
12BB/L	2EE\	.	4B 4G#/)	.
12C#/	.	.	.	.
12BB/J	.	.	.	.
4B\	.	.	(4b 4g# 4B/	<
4A#X\	2ryy	.	4cc# 4g# 4c#/	.
4An\	.	.	8dd#L 8g# 8d#/	.
.	.	.	8f#/J	[[
*v	*v	*	*	*
!!LO:LB:g=original
=48	=48	=48	=48
!	!	!LO:TX:b:i:t=poco a poco	!
4B 4G#\	.	4.ee 4.e/	.
4B-X 4Gn\	.	.	.
.	.	8ee#X 8e#X/	.
4A 4F#\	.	8ff#L 8f#\	.
.	.	8gg# 8g#\	.
4G#X 4E\	.	8aa 8a\	.
.	.	8ccc#J 8cc#\)	.
=49	=49	=49	=49
*^	*	*	*
!LO:TUP:a:problem=klamra łukowa	!	!	!	!LO:HP:t=cresc&colon;
12Dn\L	4re	.	4r	<
12E\	.	.	.	.
[<12D\J	.	.	.	.
4F#/	4D\]	.	4bb 4b\	.
*ped	*	*	*	*
4c#/	2E#X 2C#\	.	4aa 4a\	.
4B/	.	.	4gg# 4g#\	.
*Xped	*	*	*	*
=50	=50	=50	=50	=50
*	*	*	*	*^
!	!	!	!	!LO:HP:a	!
4A/	2F#\	.	8ee#XL 8e#X\	<	.
.	.	.	8ff# 8f#\	.	.
4c#/	.	.	8gg# 8g#\	.	.
.	.	.	8aaJ 8a\	[	.
*ped	*	*	*	*	*
!	!	!	!	!LO:DY:a:rj	!LO:DY:rj
4g#/	2c#: 2A: 2DD#X:\	.	4ggg# 4gg#\	sf	f
4f#/	.	.	4fff# 4ff#\	.	.
*Xped	*	*	*	*	*
*	*	*	*	*v	*v
=51	=51	=51	=51	=51
*	*^	*	*	*
*ped	*	*	*	*	*
4r	1GG# 1GGG#	4ryy	.	4r	.
4f#/	.	2.B#X 2.G# 2.F#\	.	(4fff# 4bb#X 4ff#\	.
4e/	.	.	.	4eee 4ee\	.
4d#/	.	.	.	4ddd# 4dd#\)	.
*Xped	*	*	*	*	*
*	*v	*v	*	*	*
!!LO:PB:g=original
=52	=52	=52	=52	=52
4r	2CC#\	.	4r	.
*ped	*	*	*	*
4e 4c# 4A/	.	.	(4eee 4ee\	.
2a#X 2f# 2e 2A#X/	2FFF#\	.	4ddd# 4dd#^\	.
.	.	.	4ccc# 4cc#\)	.
*Xped	*	*	*	*
=53	=53	=53	=53	=53
4g# 4e 4B 4G#\	[1BBB	.	4bb 4gg# 4ee 4b\	.
!	!	!	!	!LO:DY:a:t=For
2BB/	.	.	8eL 8G#/	f
.	.	.	8f#J 8B/	.
.	.	.	4g# 4e/	.
4B 4F#\	.	.	4b 4f#/	.
=54	=54	=54	=54	=54
*	*	*	*^	*
4e 4G#\	1BBB]	.	4ee 4g#/	2ryy	.
4g# 4B\	.	.	[4gg# 4b/	.	.
4e 4G#\	.	.	8gg#/L]	4g#\	.
.	.	.	8ee/	.	.
4BB/	.	.	8dd#/	4g# 4e\	.
.	.	.	8cc#/J	.	.
*v	*v	*	*	*	*
*	*	*v	*v	*
=55	=55	=55	=55
4BBB/	.	4b 4f# 4d#/	.
!	!	!LO:TX:a:i:t=poco riten	!LO:DY:t=Fr
4FF#/	.	8f#L 8d# 8B/	f
.	.	8g#/J	.
4F#\	.	2a 2c# 2A^>/	.
!LO:TX:a:i:t=Largo	!	!	!
4FF#/	.	.	.
=56	=56	=56	=56
*	*	*^	*
4BBB/	.	4b/	2d# 2A\	.
!	!	!	!	!LO:DY:t=For
4FF#/	.	8f#/L	.	f
.	.	8g#/J	.	.
!	!	!LO:TX:a:i:t=Lento	!	!
4F#\	.	4a 4c# 4A/	2ryy	.
*kcancel	*	*kcancel	*	*
4BBB;/	.	4d# 4B 4A;/	.	.
*	*	*v	*v	*
!!LO:LB:g=original
=57||	=57||	=57||	=57||
*k[f#]	*	*k[f#]	*
*	*	*	*^
*8ba	*	*	*	*
!	!	!LO:TX:a:i:t=Tempo 1. e delicato	!	!
4EEE^\	.	4r	<	.
*X8ba	*	*	*	*
(8qAA#X/	.	.	.	.
2BB\)	.	8eL 8G/	.	.
!	!	!	!	!LO:DY:b=2
.	.	8f#J 8B/	.	p
.	.	4g 4e/	.	.
(<8qA#X/	.	.	.	.
4B\)	.	4a 4f#/	.	.
*	*	*	*v	*v
=58	=58	=58	=58
*	*	*^	*
*8ba	*	*	*	*
4EEE\	.	4b 4g/	2ryy	.
*X8ba	*	*	*	*
(8qAA#X/	.	.	.	.
4BB\)	.	[4gg [4b 4g^>/	.	[
(<8qA#X/	.	.	.	.
2B\)	.	8gg/L]	4b_ 4a\	.
.	.	8ff#/	.	.
.	.	8ee/	8b_L 8g\	.
.	.	8dd#X/J	8b]J 8f#\	.
*	*	*v	*v	*
=59	=59	=59	=59
*8ba	*	*	*
4EEE\	.	4ee 4b 4g/	.
*X8ba	*	*	*
(8qAA#X/	.	.	.
4BB\)	.	4b 4g 4e/	.
(<8qA#X/	.	8qdd/	.
2B\)	.	4cc 4a 4e/	.
.	.	8bL 8e 8c/	.
.	.	8a/J	>
=60	=60	=60	=60
*8ba	*	*	*
4EEE\	.	4b/	.
*X8ba	*	*	*
(8qAA#X/	.	.	.
2BB\)	.	4g 4e 4B/	.
.	.	4f# 4d#X 4A/	]
(8qAAA#X/	.	.	.
4BBB\)	.	[4B< 4A< 4D</	.
=61	=61	=61	=61
*8ba	*	*	*
4EEE\	.	4B<] 4G< 4E</	.
*X8ba	*	*	*
(8qAA#X/	.	.	.
2BB\)	.	8eL 8G/	<
.	.	8f#J 8B/	.
.	.	4g 4e/	.
(<8qA#X/	.	.	.
4B\)	.	4a 4f#/	[[
!!LO:LB:g=original
=62	=62	=62	=62
*8ba	*	*	*
*	*	*^	*
4EEE\	.	4b 4g/	2ryy	.
*X8ba	*	*	*	*
!	!	!	!	!LO:HP:t=cresc&colon;
(8qAA#X/	.	.	.	<
4BB\)	.	[>4gg 4b [<4g/	.	.
4E\	.	(8gg/L]	4cc 4g\_	.
.	.	8ff#/	.	.
4E-X\	.	8gg/	4cc#X 4g\]	.
.	.	8aa/J	.	.
*	*	*v	*v	*
=63	=63	=63	=63
(8D\L	.	4bb 4dd 4g/)	f
8c#X 8A#X\	.	.	.
8dJ 8B\)	.	(8ggL 8b/	.
8r	.	8ddJ 8g/)	.
(8D\L	.	4ee#y 4e#X/	.
8B 8G#X\	.	.	.
8c#J 8A#\)	.	(8ddL 8f#/	.
8r	.	8aJ 8d/)	.
=64	=64	=64	=64
*^	*	*^	*
8r	2D\	.	2cc/	4f#\	.
8A/L	.	.	.	.	.
8G/	.	.	.	8e\L	.
8F#/J	.	.	.	8d\J	.
2G/	2GG\	.	4b/	2d 2B\	.
.	.	.	4g/	.	.
*v	*v	*	*	*	*
*	*	*v	*v	*
=65	=65	=65	=65
4E: 4GG: 4CC:/	.	[[>12eeL [>12cc^>/	.
.	.	[[>12g/	.
.	.	[<12e/J	.
!LO:TUP:a:problem=klamra łukowa	!	!LO:TX:a:i:t=energico	!
12c\L	.	4ee]] 4cc] 4g]] 4e/]	f
12G\	.	.	.
12C\J	.	.	.
2B: 2D: 2GG:\	.	2dd 2b 2g 2d/	.
=66	=66	=66	=66
4E: 4GG: 4CC:/	.	[[>12eeL [>12cc/	.
.	.	[[>12g/	.
.	.	[<12e/J	.
!LO:TUP:a:problem=klamra łukowa	!	!	!
12c\L	.	4ee]] 4cc] 4g]] 4e/]	.
12G\	.	.	.
12C\J	.	.	.
2B: 2D: 2GG:\	.	8ddL 8b/	.
.	.	8d/	.
.	.	8g/	.
.	.	8b/J	.
!!LO:LB:g=original
=67	=67	=67	=67
!	!	!LO:TUP:a:problem=klamra łukowa	!
4B 4Fn 4BB-X\	.	12ddL 12b^>/	.
.	.	12fn/	.
.	.	12d/J	.
!	!	!LO:TUP:a:problem=klamra łukowa	!
4BB- 4FF# 4BBB-y\	.	12d<L 12B<^>/	.
.	.	12Fn</	.
.	.	12D</J	.
!	!	!	!LO:DY:t=for
2FF# 2FFF#\	.	2c< 2A< 2F< 2C</	f
=68	=68	=68	=68
!	!	!LO:TUP:a:problem=klamra łukowa	!
4B-X 4Fn 4BB-X\	.	12ddL 12b-X^>/	.
.	.	12fn/	.
.	.	12d/J	.
!	!	!LO:TUP:a:problem=klamra łukowa	!
4BB- 4FFn 4BBB-X\	.	12d<L 12B</	.
.	.	12Fn</	.
.	.	12D</J	.
2FF 2FFFny\	.	8c<L 8A< 8F< 8C</	.
!	!	!	!LO:HP:b=2:t=dim.
.	.	(<8C</	>
.	.	8F</	.
.	.	8A</J	.
=69	=69	=69	=69
[2FF#\	.	4c</)	.
.	.	(8fnL 8A/	.
.	.	8gJ 8c/	.
2FF#\]	.	4a 4f/)	f
.	.	4a 4f 4c'/	>
=70	=70	=70	=70
(<2BBB\	.	4b 4f#X 4d#X'/	.
.	.	4f# 4d# 4B'/	.
2CC\)	.	4g 4e 4B/	.
.	.	4e 4B 4G/	]
=71	=71	=71	=71
(<1CC	.	4r<	.
.	.	(<8c<L 8E</	.
.	.	8d<J 8G</	.
.	.	4e< 4c</)	.
!	!	!	!LO:DY:t=mfz
.	.	4e< 4c< 4G</	mf
!!LO:LB:g=original
=72	=72	=72	=72
!LO:TX:b:t=P:problem=brak zakończenia łuku	!	!	!
(<2FFF#\)	.	4f#< 4c< 4A</	>
.	.	4c< 4A< 4F#</	.
2BBB\)	.	4d< 4B< 4F#</	.
.	.	4B< 4F#< 4D#X</	]]
=73	=73	=73	=73
[>1BBB	.	4r<	.
.	.	(8G<L 8E</	<
.	.	8A<J 8F#</	.
.	.	4B< 4G</)	.
!	!	!LO:TX:a:i:t=rall e piano	!
.	.	4B< 4G</	[
=74	=74	=74	=74
2.BBB\]	.	4e< 4c< 4A</	.
.	.	8d<L 8A< 8E</	.
.	.	8c</J	.
.	.	2B< 2G< 2E</	.
*8ba	*	*	*
(<4BBBB\	.	.	.
*X8ba	*	*	*
=75	=75	=75	=75
1BBB)	.	4r<	.
.	.	(<8G<L 8E</	.
!	!	!LO:TX:b:i:t=poco Lento	!
.	.	8A<J 8F#</	.
.	.	4B< 4G</)	.
.	.	4B< 4G< 4E</	.
=76	=76	=76	=76
4r	.	2c< 2A< 2E</	.
2BBB\	.	.	.
.	.	2B< 2A< 2D#X<;/	.
4BBB;\	.	.	.
=77	=77	=77	=77
!	!	!LO:TX:a:i:t=Tempo 1	!
4EE\	.	(2B/	.
(8EL 8GG\	.	.	pp
8F#J 8BB\	.	.	.
4G 4E\)	.	[>2b/)	.
4A 4F#\	.	.	.
!!LO:LB:g=original
=78	=78	=78	=78
4B 4G\	.	2b/]	<
[4g [4B\	.	.	[
(8g]L 8B\]	.	[2bb\	.
8f# 8A\	.	.	.
8e 8G\	.	.	.
8d#XJ 8F#\)	.	.	.
=79	=79	=79	=79
4e 4G\	.	4bb\]	.
4e 4A\	.	(8aaL 8cc\	.
!	!	!LO:TX:b:i:t=leggiero	!
.	.	8ee\J	.
4B\	.	4gg 4ee 4b\)	.
4BB/	.	4ff# 4dd#X 4a\	.
=80	=80	=80	=80
4C/	.	4ee 4g\	.
4GG#X/	.	(>8ddL 8fn/	pp
.	.	8b/J	>
4AA/	.	4cc 4a 4e/)	.
4EE/	.	4b 4g#X 4d/	.
=81	=81	=81	=81
4FFn/	.	4a 4c/	.
!	!	!LO:TX:b:i:t=poco rit	!
4FF/	.	8gL 8c 8AM>/	]
.	.	8fn/J	.
4BBB/	.	4b 4d#X 4A/	p
!	!	!LO:TX:a:i:t=Tempo 1.	!
(4BBB/	.	(>4b 4d# 4A/	.
=82	=82	=82	=82
2EE/)	.	2e 2B 2G/)	.
4r	.	4r	.
==	==	==	==
*-	*-	*-	*-
!!!system-decoration: {(s1,s2)}
!!!RDF**kern: > = above
!!!RDF**kern: < = below
!!!ENC: Filip Voros
!!!END: 2021-11-05
!!!ENC: Marta Lawrence
!!!END: 2021-11-09
